X: 2074
T: Ammonoosuc Breakup
R: reel
C: Rick Gagne
N: 1998 on tenor banjo
N: key of Bm better for flute
M: 4/4
Q: 1/4=175
K: Am
de | "F"fedc Afed | "Am"eccc BcAc | "G"dBAB GBed | "C"cege "Am"agfe | 
"F"fedc Afed | "Am"eccc BcAc | "G"dBAB GBed |1 "Am"ceBe A2 :|2 "Am"ceBe A4 ||
"Am"AcBA cBAc | BAcB ABcB | "F"AcBA cBAc | "Em"BAcB A2BA | 
"F"FAAA "Em"EAAA | "Cm"^DAAA "D"BAc2 | "Am"AcBA cBAc |1 "Em"BAcB "Am"A4 :|\
[2 "Em"BAcB "Am"A2 ||
